X:160
T:A los rayos del sol
R:Xota
C:Tradicional
S:Música Tradicional Asturiana, (C) Tello & Tito. Asturies, 2001.
S:http://pagina.de/MusTradAst <telloytito@asturies.org>
A:Asturies
B:Musicología Asturiana - La Canción Tradicional, Modesto González Cobas
Z:La Canción Tradicional, M.G.C.
M:3/8
L:1/8
Q:3/8=80
W:¡ay, de mi, que me lleva la toca el rido!
W:bajateme por ella galán querido
W:a los rayos del sol se peina mi amor
W:se viste y se calza del mismo color
K:Am
|: A2 A|ccc|B2 G|ABA|A G2-|G3 :|
|A2 A|ccc|B2 G|ccc|B2 G|AAA|cBB|AAA|G3-|G2 z|


